arvonya_website/public/favicon.svg

<svg xmlns="http://www.w3.org/2000/svg" viewBox="0 0 100 100">
  <defs>
    <linearGradient id="grad" x1="0" y1="0" x2="1" y2="1">
      <stop offset="0%" stop-color="#30d068"/>
      <stop offset="100%" stop-color="#ff6808"/>
    </linearGradient>
  </defs>
  <path fill="url(#grad)" d="M25 85V45h10V30h10v15h10V25h10v20h10V30h10v15h10V85H75V50H65v35H55V50H45v35H35V50H25Z"/>
</svg>

<svg xmlns="http://www.w3.org/2000/svg" viewBox="0 0 100 100">
  <defs>
    <linearGradient id="grad" x1="0" y1="0" x2="1" y2="1">
      <stop offset="0%" stop-color="#22c55e"/>
      <stop offset="100%" stop-color="#f97316"/>
    </linearGradient>
  </defs>
  <path fill="url(#grad)" d="M25 85 L25 45 L35 45 L35 30 L45 30 L45 45 L55 45 L55 25 L65 25 L65 45 L75 45 L75 30 L85 30 L85 45 L85 85 Z"/>
  <rect x="30" y="50" width="40" height="35" fill="none" stroke="#1a1a1a" stroke-width="3"/>
  <rect x="35" y="55" width="10" height="25" fill="#e5e5e5"/>
  <rect x="55" y="55" width="10" height="25" fill="#e5e5e5"/>
  <rect x="47" y="55" width="6" height="12" fill="#e5e5e5"/>
</svg>
